src/lib/packages/icons/src/assets/filled/bell-minus.svg

<svg width="24" height="24" viewBox="0 0 24 24" fill="none" xmlns="http://www.w3.org/2000/svg">
<path d="M20.391 17.688C20.372 17.665 18.495 15.282 18.495 12.5V8.995C18.495 5.414 15.581 2.5 12 2.5C8.41901 2.5 5.50502 5.414 5.50502 8.995V12.5C5.50502 15.281 3.62902 17.664 3.60902 17.688C3.48902 17.838 3.46602 18.044 3.54902 18.217C3.63202 18.39 3.807 18.5 3.999 18.5H19.999C20.191 18.5 20.366 18.39 20.449 18.217C20.534 18.043 20.51 17.838 20.391 17.688ZM14 11.75H10C9.58601 11.75 9.25001 11.414 9.25001 11C9.25001 10.586 9.58601 10.25 10 10.25H14C14.414 10.25 14.75 10.586 14.75 11C14.75 11.414 14.414 11.75 14 11.75ZM14.162 20.252C13.706 21.033 12.898 21.5 12 21.5C11.102 21.5 10.294 21.033 9.83802 20.252C9.74802 20.098 9.74701 19.906 9.83601 19.751C9.92501 19.596 10.09 19.5 10.27 19.5H13.73C13.909 19.5 14.074 19.596 14.164 19.751C14.254 19.906 14.252 20.098 14.162 20.252Z" fill="currentColor"/>
</svg>

<svg xmlns="http://www.w3.org/2000/svg" width="24" height="24" fill="none"><path fill="currentColor" d="M20.391 17.688c-.019-.023-1.896-2.406-1.896-5.188V8.995A6.503 6.503 0 0 0 12 2.5a6.503 6.503 0 0 0-6.495 6.495V12.5c0 2.781-1.876 5.164-1.896 5.188a.5.5 0 0 0 .39.812h16a.499.499 0 0 0 .392-.812ZM14 11.75h-4a.75.75 0 0 1 0-1.5h4a.75.75 0 0 1 0 1.5Zm.162 8.502A2.483 2.483 0 0 1 12 21.5a2.483 2.483 0 0 1-2.162-1.248.501.501 0 0 1 .432-.752h3.46a.499.499 0 0 1 .432.752Z"/></svg>
